flaticon/holiday/united-states-of-america.svg

<svg xmlns="http://www.w3.org/2000/svg" width="32" height="32" viewBox="0 0 24 24">
    <path d="M5.453125 6.800781L6.195312 6.410156 6.941406 6.800781 6.796875 5.972656 7.398438 5.386719 6.570312 5.265625 6.195312 4.511719 5.824219 5.265625 4.992188 5.386719 5.59375 5.972656zM8.660156 6.6875L9.402344 6.296875 10.144531 6.6875 10.003906 5.859375 10.605469 5.273438 9.773438 5.152344 9.402344 4.398438 9.03125 5.152344 8.199219 5.273438 8.800781 5.859375zM5.453125 9.601562L6.195312 9.210938 6.941406 9.601562 6.796875 8.773438 7.398438 8.1875 6.570312 8.066406 6.195312 7.3125 5.824219 8.066406 4.992188 8.1875 5.59375 8.773438zM8.660156 9.488281L9.402344 9.097656 10.144531 9.488281 10.003906 8.660156 10.605469 8.074219 9.773438 7.953125 9.402344 7.199219 9.03125 7.953125 8.199219 8.074219 8.800781 8.660156zM8.660156 9.488281"/>
    <path d="M 20.199219 4.800781 L 20.199219 3.199219 L 4.589844 3.199219 C 4.84375 2.863281 5 2.453125 5 2 C 5 0.898438 4.101562 0 3 0 C 1.898438 0 1 0.898438 1 2 C 1 2.652344 1.316406 3.222656 1.800781 3.589844 L 1.800781 20.800781 L 1.679688 20.800781 C 1.304688 20.800781 1 21.105469 1 21.480469 L 1 22 L 0.882812 22 C 0.503906 22 0.199219 22.304688 0.199219 22.679688 L 0.199219 24 L 5.800781 24 L 5.800781 22.679688 C 5.800781 22.304688 5.496094 22 5.117188 22 L 5 22 L 5 21.480469 C 5 21.105469 4.695312 20.800781 4.320312 20.800781 L 4.199219 20.800781 L 4.199219 16 L 17 16 L 17 17.601562 L 23.800781 17.601562 L 23.800781 4.800781 Z M 4.199219 11.199219 L 19.398438 11.199219 L 19.398438 12.800781 L 4.199219 12.800781 Z M 12.199219 8.800781 L 19.398438 8.800781 L 19.398438 10.398438 L 12.199219 10.398438 Z M 20.199219 10.398438 L 23 10.398438 L 23 12 L 20.199219 12 Z M 20.199219 9.601562 L 20.199219 8 L 23 8 L 23 9.601562 Z M 19.398438 8 L 12.199219 8 L 12.199219 6.398438 L 19.398438 6.398438 Z M 20.199219 12.800781 L 23 12.800781 L 23 14.398438 L 20.199219 14.398438 Z M 23 5.601562 L 23 7.199219 L 20.199219 7.199219 L 20.199219 5.601562 Z M 19.398438 4 L 19.398438 5.601562 L 12.199219 5.601562 L 12.199219 4 Z M 11.398438 10.398438 L 4.199219 10.398438 L 4.199219 4 L 11.398438 4 Z M 3 0.800781 C 3.660156 0.800781 4.199219 1.339844 4.199219 2 C 4.199219 2.660156 3.660156 3.199219 3 3.199219 C 2.339844 3.199219 1.800781 2.660156 1.800781 2 C 1.800781 1.339844 2.339844 0.800781 3 0.800781 Z M 5 23.199219 L 1 23.199219 L 1 22.800781 L 5 22.800781 Z M 4.199219 22 L 1.800781 22 L 1.800781 21.601562 L 4.199219 21.601562 Z M 3.398438 20.800781 L 2.601562 20.800781 L 2.601562 4 L 3.398438 4 Z M 4.199219 15.199219 L 4.199219 13.601562 L 19.398438 13.601562 L 19.398438 15.199219 Z M 18.035156 16.800781 L 17.800781 16.800781 L 17.800781 16 L 18.835938 16 Z M 19.164062 16.800781 L 20.199219 15.765625 L 20.199219 15.199219 L 23 15.199219 L 23 16.800781 Z M 19.164062 16.800781"/>
</svg>

<svg xmlns="http://www.w3.org/2000/svg" width="32" height="32" viewBox="0 0 24 24">
    <path d="M5.453 6.8l.742-.39.746.39-.144-.827.601-.586-.828-.121-.375-.754-.37.754-.833.12.602.587zm0 0M8.66 6.688l.742-.391.743.39-.141-.828.601-.586-.832-.12-.37-.755-.372.754-.832.121.602.586zm0 0M5.453 9.602l.742-.391.746.39-.144-.828.601-.585-.828-.122-.375-.754-.37.754-.833.121.602.586zm0 0M8.66 9.488l.742-.39.743.39-.141-.828.601-.586-.832-.12-.37-.755-.372.754-.832.121.602.586zm0 0"/>
    <path d="M20.2 4.8V3.2H4.59C4.844 2.862 5 2.452 5 2c0-1.102-.898-2-2-2-1.102 0-2 .898-2 2 0 .652.316 1.223.8 1.59V20.8h-.12a.68.68 0 0 0-.68.68V22H.883a.681.681 0 0 0-.684.68V24h5.602v-1.32a.681.681 0 0 0-.684-.68H5v-.52a.68.68 0 0 0-.68-.68H4.2V16H17v1.602h6.8V4.8zm-16 6.4h15.198v1.6H4.2zm8-2.4h7.198v1.598H12.2zm8 1.598H23V12h-2.8zm0-.796V8H23v1.602zM19.397 8H12.2V6.398h7.2zm.801 4.8H23v1.598h-2.8zM23 5.603v1.597h-2.8V5.602zM19.398 4v1.602H12.2V4zm-8 6.398H4.2V4h7.2zM3 .801C3.66.8 4.2 1.34 4.2 2S3.66 3.2 3 3.2c-.66 0-1.2-.54-1.2-1.2 0-.66.54-1.2 1.2-1.2zm2 22.398H1v-.398h4zM4.2 22H1.8v-.398h2.4zm-.802-1.2h-.796V4h.796zm.801-5.6v-1.598h15.2v1.597zm13.836 1.6h-.234V16h1.035zm1.13 0l1.034-1.034v-.567H23v1.602zm0 0"/>
</svg>
